X:159
T:Schottis fr Norway
R:Schottische
O:Norway
M:4/4
K:DDor
A>^cde f2f2|f>ee^c A4|A>_BAG F>EDF|A2G<B A4|\
A>^cde f2f2|f>ee^g a4|
a>geg f>edf|e2^c2 d4::\
f>efg f>ed2|d>efd e2A2|
F>A G<A F>A G<A|F>A G<B A4|\
A^cde f2f2|f>ee^g a4|a>geg f>edf|e2^c2 d4:|
